X:1
T:The Twin Ballots
M:6/8
L:1/8
K:C
 G,| CEE EDC| FGA GEG| ABc cGE| C2 E EDG,| CEE EDC| FGA GEG| ABc cGE|\
 G F3/2 B,/2 DC G/2G/2| c3 B3| c3 z2 G| ABc G2 E| D3- D z G,| C2 E EDC|\
 FGA GEG| ABB GAB| c3- c z||

